X:1
T: The Miller of Glanmire
C:
R:Jig
Q:180
K:Am
M:6/8
L:1/16
G2|E2A2A2 E2A2A2|B6G4A2|B2e2e2 e2d2B2|d2e2^f2 g2a2g2|e2a2a2 a2g2e2|d2B2G2 G4A2|B2e2e2 d2B2G2|B2A2A2 A4G2|
E2A2A2 E2A2A2|B6G4A2|B2e2e2 e2d2B2|d2e2^f2 g2a2g2|e2a2a2 a2g2e2|d2B2G2 G4A2|B2e2e2 d2B2G2|B2A2A2 A4d2|
e2a2a2 a2g2e2|d2B2G2 G4A2|B2e2e2 e2d2B2|d2e2^f2 g2a2g2|e2a2a2 a2g2e2|d2B2G2 G4A2|B2e2e2 d2B2G2|B2A2A2 A4d2|
e2a2a2 a2g2e2|d2B2G2 G4A2|B2e2e2 e2d2B2|d2e2^f2 g2a2g2|e2a2a2 a2g2e2|d2B2G2 G4A2|B2e2e2 d2B2G2|B2A2A2 A4||
